X:125
T:Merry Conceit,The. (p)1657.PLFD.126
T:New Conceit,The. (p)1657.PLFD.126
T:Asparagus Garden,The. (p)1657.PLFD.126
M:6/4
L:1/4
Q:3/4=90
S:Playford, Dancing Master,3rd Ed.,1657
O:England
H:1657.
Z:Chris Partington.
K:F
B>AG A>Bc| d>cB f2 c| fcd cAc| d>cA B3:|
|: Acf A>GF| A c2 f2 A|BGB d>cB| fga b3|
bbB d>e^f| g2 d B>AG AcG^F>ED |A3 G3:|
